packages/netlify-cms-ui-default/src/Icon/images/search.svg

<svg viewBox="0 0 24 24"><path d="m20.5257919 18.2361128c.6322775.6322774.6322775 1.6574017 0 2.2896791-.6322774.6322775-1.6574017.6322775-2.2896791 0l-3.3414852-3.3414852c-.2368377-.2368377-.6656031-.2967701-.963706-.1374303 0 0 .0405408-.0096968-.220218.1080969-.8631283.3899046-1.8210951.6069315-2.8297512.6069315-3.80024506 0-6.8809524-3.0807074-6.8809524-6.8809524 0-3.80024506 3.08070734-6.8809524 6.8809524-6.8809524 3.800245 0 6.8809524 3.08070734 6.8809524 6.8809524 0 1.012028-.2184804 1.9730273-.6108477 2.8384043-.1168354.2576838-.1051364.2138242-.1051364.2138242-.1604092.2941546-.0982926.7247681.138386.9614467zm-9.6767823-3.466001c2.1655649 0 3.9211022-1.7555373 3.9211022-3.9211022 0-2.16556486-1.7555373-3.92110209-3.9211022-3.92110209-2.16556486 0-3.92110209 1.75553723-3.92110209 3.92110209 0 2.1655649 1.75553723 3.9211022 3.92110209 3.9211022z"/></svg>

<svg viewBox="0 0 24 24"><path d="M20.5257919,18.2361128 C21.1580694,18.8683902 21.1580694,19.8935145 20.5257919,20.5257919 C19.8935145,21.1580694 18.8683902,21.1580694 18.2361128,20.5257919 L14.8946276,17.1843067 C14.6577899,16.947469 14.2290245,16.8875366 13.9309216,17.0468764 C13.9309216,17.0468764 13.9714624,17.0371796 13.7107036,17.1549733 C12.8475753,17.5448779 11.8896085,17.7619048 10.8809524,17.7619048 C7.08070734,17.7619048 4,14.6811974 4,10.8809524 C4,7.08070734 7.08070734,4 10.8809524,4 C14.6811974,4 17.7619048,7.08070734 17.7619048,10.8809524 C17.7619048,11.8929804 17.5434244,12.8539797 17.1510571,13.7193567 C17.0342217,13.9770405 17.0459207,13.9331809 17.0459207,13.9331809 C16.8855115,14.2273355 16.9476281,14.657949 17.1843067,14.8946276 L20.5257919,18.2361128 Z M10.8490096,14.7701118 C13.0145745,14.7701118 14.7701118,13.0145745 14.7701118,10.8490096 C14.7701118,8.68344474 13.0145745,6.92790751 10.8490096,6.92790751 C8.68344474,6.92790751 6.92790751,8.68344474 6.92790751,10.8490096 C6.92790751,13.0145745 8.68344474,14.7701118 10.8490096,14.7701118 Z"/></svg>
